!!!OTL: EIN POSTKNECHT IST EIN ARMER WICHT
!!!ARE: Europa, Mitteleuropa, Deutschland, Hessen, Hanau; Schluechtern
!!!SCT: E1579
!!!YEM: Copyright 1995, estate of Helmut Schaffrath.
**kern
*ICvox
*Ivox
*M6/8
*k[f#]
*G:
{8d
=1
4g
8g
4g
8a
=2
4b
8b
4b}
{8b
=3
4a
8b
4cc
8f#
=4
4.a
8g
8r}
{8d
=5
4g
8g
4g
8a
=6
4b
8b
4b}
{8b
=7
4a
8b
4cc
8f#
=8
4.a
8g
8r}
{8a
=9
4a
8b
4a
8g
=10
4f#
8a
4d}
{8a
=11
4a
8b
4a
8g
=12
4f#
8a
4d}
{8dd
=13
4.dd
4b
8dd
=14
4.dd
4b}
{8d
=15
4g
8b
8dd
8gg
8b
=16
8dd
8cc
8a
4g}
==
!!!AGN: Staende - Lied, Postillon
!!!ONB: ESAC (Essen Associative Code) Database: ERK3
!!!AMT: compound duple
!!!AIN: vox
!!!EED: Helmut Schaffrath
!!!EEV: 1.0
*-
